X: 023
M: C|
L: 1/8
K: F
V: 1
f/g/ |\
af-fc Ac-cf | affd eggb | affc Ac-cf | defg aff ||
f/g/ |\
affc Accf | affd eggb | afge fdcA | BGcB AFF |]
V: 2 clef=bass middle=d
z |\
[a2f2][a2f2] [a2f2][a2f2] | [a2f2][a2f2] c2c2 | [a2f2][a2f2] [a2f2][a2f2] | b2ag f2F :|
z |\
[a2f2][a2f2] [a2f2][a2f2] | f2b2 c'2e2 | [a2f2][a2f2] [a2f2][a2f2] | b2ag f2F2 |
[a2f2][a2f2] [a2f2][a2f2] | f2b2 c'2e2 | f2c2 d2A2 | B2c2 f2F |]


